exported-svg/rewind.svg

<svg height="24" viewBox="0 0 24 24" width="24" xmlns="http://www.w3.org/2000/svg"><path d="m12 18.5009258c0 .4160741-.4785413.6501209-.8069703.3946761l-9.00000001-7c-.25737292-.200179-.25737292-.5891733 0-.7893522l9.00000001-7.00000004c.328429-.25544478.8069703-.02139798.8069703.39467611zm-1-12.97768035-7.68558898 5.97768035 7.68558898 5.9776803zm12 12.97768035c0 .4160741-.4785413.6501209-.8069703.3946761l-9-7c-.2573729-.200179-.2573729-.5891733 0-.7893522l9-7.00000004c.328429-.25544478.8069703-.02139798.8069703.39467611zm-1-12.97768035-7.685589 5.97768035 7.685589 5.9776803z"/></svg>

<?xml version="1.0" encoding="UTF-8"?>
<svg width="24px" height="24px" viewBox="0 0 24 24" version="1.1" xmlns="http://www.w3.org/2000/svg" xmlns:xlink="http://www.w3.org/1999/xlink">
    <!-- Generator: Sketch 55.2 (78181) - https://sketchapp.com -->
    <title>rewind</title>
    <desc>Created with Sketch.</desc>
    <g id="rewind" stroke="none" stroke-width="1" fill="none" fill-rule="evenodd">
        <path d="M12,18.5009258 C12,18.9169999 11.5214587,19.1510467 11.1930297,18.8956019 L2.19302969,11.8956019 C1.93565677,11.6954229 1.93565677,11.3064286 2.19302969,11.1062497 L11.1930297,4.10624966 C11.5214587,3.85080488 12,4.08485168 12,4.50092577 L12,18.5009258 Z M11,5.52324545 L3.31441102,11.5009258 L11,17.4786061 L11,5.52324545 Z" id="Shape" fill="#000000" fill-rule="nonzero"></path>
        <path d="M23,18.5009258 C23,18.9169999 22.5214587,19.1510467 22.1930297,18.8956019 L13.1930297,11.8956019 C12.9356568,11.6954229 12.9356568,11.3064286 13.1930297,11.1062497 L22.1930297,4.10624966 C22.5214587,3.85080488 23,4.08485168 23,4.50092577 L23,18.5009258 Z M22,5.52324545 L14.314411,11.5009258 L22,17.4786061 L22,5.52324545 Z" id="Shape" fill="#000000" fill-rule="nonzero"></path>
    </g>
</svg>
